X: 35501
T: Ruby, The
R: waltz
M: 3/4
K: Dmajor
|:A4 B2|d4 B2|e6|e4 f2|A4 B2|d3 e f2|g4 G2|d B3B2|
e4 f2|d4 B2|e6|d4 B2|A4 f2|e4 c2|e6|d4 f2:|
|:a4 d2|f4 d2|B6|B4 (3agf|g4 G2|d4 B2|B A3A2|A4 e>f|
a4 d2|f4 d2|B6|d4 B2|A4 f2|e4 c2|1 d6|d4 f>g:|2 d6|d6||

